X: 387
T: Star of Munster, The
C: Trad. Ireland (R-159)
M: C|
L: 1/8
K: Ador
 "Am"c3A "G"BAGB | "Am"AGEF "G"GED2|"Am"EAAB cBcd | eaaf "em"gfed |
  "Am"cBAc "G"BAGB | "Am"AGEF "G"GED2| "Am"EAAB cBcd  | "Em"edcB "Am"A4 :|
|: "Am"a3b ageg | agab agef|"G"g2ga gfef|gfga gfe2 |
 "Am"a3b ageg | agab agef| "G"g4 "Am"a4 |[1 "G"b3a gfe2 :|   [2 "G"b3a "Em"gfed ||

